modules/hawcons-filled/icons/icon-63-document-music.svg

<?xml version="1.0" encoding="UTF-8" standalone="no"?>
<svg width="32px" height="32px" viewBox="0 0 32 32" version="1.1" xmlns="http://www.w3.org/2000/svg" xmlns:xlink="http://www.w3.org/1999/xlink" xmlns:sketch="http://www.bohemiancoding.com/sketch/ns">
    <!-- Generator: Sketch 3.0.3 (7891) - http://www.bohemiancoding.com/sketch -->
    <title>icon 63 document music</title>
    <desc>Created with Sketch.</desc>
    <defs></defs>
    <g id="Page-1" stroke="none" stroke-width="1" fill="none" fill-rule="evenodd" sketch:type="MSPage">
        <g id="icon-63-document-music" sketch:type="MSArtboardGroup" fill="#929292">
            <path d="M22,15.2222222 L22,21.4998169 C21.5821697,21.1859724 21.062803,21 20.5,21 C19.1192881,21 18,22.1192881 18,23.5 C18,24.8807119 19.1192881,26 20.5,26 C21.8807119,26 23,24.8807119 23,23.5 L23,15 L23,14 L14,16 L14,16.5 L14,22.4998169 C13.5821697,22.1859724 13.062803,22 12.5,22 C11.1192881,22 10,23.1192881 10,24.5 C10,25.8807119 11.1192881,27 12.5,27 C13.8807119,27 15,25.8807119 15,24.5 L15,16.7777778 L22,15.2222222 L22,15.2222222 Z M19,3 L9.0085302,3 C7.8992496,3 7,3.89833832 7,5.00732994 L7,27.9926701 C7,29.1012878 7.89092539,30 8.99742191,30 L24.0025781,30 C25.1057238,30 26,29.1090746 26,28.0025781 L26,11 L21.0059191,11 C19.8980806,11 19,10.1132936 19,9.00189865 L19,3 L19,3 Z M20,3 L20,8.99707067 C20,9.55097324 20.4509752,10 20.990778,10 L26,10 L20,3 L20,3 Z M12.5,26 C13.3284272,26 14,25.3284272 14,24.5 C14,23.6715728 13.3284272,23 12.5,23 C11.6715728,23 11,23.6715728 11,24.5 C11,25.3284272 11.6715728,26 12.5,26 L12.5,26 Z M20.5,25 C21.3284272,25 22,24.3284272 22,23.5 C22,22.6715728 21.3284272,22 20.5,22 C19.6715728,22 19,22.6715728 19,23.5 C19,24.3284272 19.6715728,25 20.5,25 L20.5,25 Z" id="document-music" sketch:type="MSShapeGroup"></path>
        </g>
    </g>
</svg>

<svg width="32" height="32" xmlns="http://www.w3.org/2000/svg"><path d="M22 15.222V21.5a2.5 2.5 0 1 0 1 2V14l-9 2v6.5a2.5 2.5 0 1 0 1 2v-7.722l7-1.556zM19 3H9.009C7.899 3 7 3.898 7 5.007v22.986A2 2 0 0 0 8.997 30h15.006C25.106 30 26 29.11 26 28.003V11h-4.994A1.997 1.997 0 0 1 19 9.002V3zm1 0v5.997c0 .554.451 1.003.99 1.003H26l-6-7zm-7.5 23a1.5 1.5 0 1 0 0-3 1.5 1.5 0 0 0 0 3zm8-1a1.5 1.5 0 1 0 0-3 1.5 1.5 0 0 0 0 3z" fill="#929292" fill-rule="evenodd"/></svg>
